X: 42
M: 2/4
L: 1/16
K: A
V: 1
ed |\
cdec A2c2 | BAGF E2B2 | cAce a2c2 | c2B2 z2B2 |\
c2ac B2g2 | A2fA G2e2 | c2a2 gef^d | e6 :|
|: BA |\
f2df e2a2 | d2Bd c2e2 | F2d2 cABG | A6 :|
M: 6/8
K: Am
|: "Mineur"AB |\
cBAc B2E2 | FEDF E2A2 | B,2F2E2D2 | C2B,C A,2AB |\
cBAc B2E2 | FEDF E2A2 | ^G2A2 d2c2 | B6 :|
|: ed |\
cdec A2G2 | FGAF D2dc | BcdB G2F2 | EFGE C2cB |\
V: 2 clef=bass middle=d
z2 |\
f2^d2e2g2 | a2f2b2B2 | e2B2E2 :||: z2 | e4 g2e2 | a4 c2A2 |
d2e2f2d2 | e2e'2c'2a2 | d'2b2c'2a2 | b2g2a2c2 | d2B2e2E2 | a2e2A2 :|
M: 6/8
K: Am
|: "Mineur"z2 |\
a4 e2c2 | d4 c2A2 | d2B2 e2E2 | A4 z4 | a4 e2c2 |
d4 c2A2 | e2c2B2A2 | e2B2E2 :||: z2 | A4 c2A2 | d4 f2d2 |
g4 B2G2 | c4 e2c2 | f2e2d2f2 | e2d2 c2A2 | d2B2e2E2 | a2e2A2 :|


